X: 1
T: Danses des petits-cygnes
C: P.I.Tchaikovsky
R:
O:
B:
D:
Z: 1998 by John Chambers <jc@trillian.mit.edu>
N:
M: 4/4
L: 1/8
K: F#m
P: A
|: "F#m"zA AA A2 {GA}BA | "C#7"GB BB B2 {AB}cB | "F#m"Acf^e "C#7"c4 | "F#m"zcf^e "C#7"c4 :|
P: B
|| "F#m"zc "C#dim"cc "F#7"cc f/e/d/c/ | Bc- cd- d^A- AB- | BB BB BB e/d/c/B/ | Ae- g/f/e/d/ cg b/a/g/f/ |
| ec' c'c' c'c' f'/e'/d'/c'/ | bc'- c'd'- d'^a- ab | bb bb bb e'/d'/c'/b/ | ae c/^d/e/^e/ fc A/^A/B/^B/ |
| cc cc cc f/e/d/c/ | Bc- cd- d^A- AB- | BB BB BB e/d/c/B/ | Ae g/f/e/d/ cg b/a/g/f/ |
| ec' c'c' c'c' f'/e'/d'/c'/ | bc'- c'd'- d'^a- ab | bb bb bb e'/d'/c'/b/ | af g/a//b/^b/ c'c d/^d/e/^e/ |
P: A
|: fA AA A2{GA}BA | "(E)"GB BB B2{AB} cB | "F#m"Acf^e "C#7"c4 | "F#m"zcf^e "C#7"c4 :|
P: Coda
|| c(f ^e)(c f)(f e)c | fc- cB- BA- AG | F(f ^e)(c f)(f e)(c | f)c- cB- BA- AG- | F^e f2 z4 |]
